X:1
T:Blues By Five
C:Red Garland
Z:Creative Commons BY
L:1/8
M:4/4
K:Bb
V:1 treble 
V:1
 F2 |:"Bb7" _A3 B- B2 F2 | _A3 B- B2 F2 | _AB A2 B2 A2 | z4 z2 B2 |"Eb7" _d3 e- e2 B2 | %6
 _d3 e- e2 F2 |"Bb7" _AB A2 B2 AF | z4 z2 B2 |"F7" _d3 B- B2 d2- | d B3 _AF=AB |"Bb7" z8 | %12
"F7" z8 :| %13

